X: 13190
T: First Snow, The
R: waltz
M: 3/4
K: Fmajor
AB|c3 dcB|A2 F2 D2|CFA cde|f2 c2 A2|
B3 cBA|G2 E2 G2|d2 c3 B|A4 AB|
c3 dcB|A2 F2 D2|CFA cde|f2 c2 A2|
B2 BA GF|E2 G2 B2|d2 c3 E|F4||
AB|cf ef cf|Af ef cf|A2 a3 f|g2 e2 c2|
Bg ^fg dg|Bg ^fg dg|B2 b3 g|e2 c2 B2|
cf ef cf|Af ef cf|A2 a3 f|g2 e2 c2|
B2 BA GF|E2 G2 B2|dc B2 E2|F4 z2||

